src/assets/proyects/Vector.svg

<svg width="184" height="284" viewBox="0 0 184 284" fill="none" xmlns="http://www.w3.org/2000/svg">
<path d="M135.732 281.764C136.136 281.839 136.568 281.713 136.855 281.361C137.125 280.969 137.385 280.817 137.882 280.854C138.767 280.925 139.471 280.548 140.206 280.111C140.557 279.912 140.896 279.735 141.247 279.639C141.665 279.525 142.103 279.407 142.446 279.142C142.924 278.774 143.194 278.197 143.116 277.599C142.841 275.488 142.325 273.46 141.355 271.507C139.108 267.107 136.83 262.766 134.323 258.517C131.655 254.002 129.385 249.279 126.012 245.141C124.643 243.465 123.335 241.671 122.503 239.732C121.066 236.285 119.125 233.181 116.954 230.171C116.236 229.181 115.853 227.961 115.349 226.838C114.684 225.448 114.203 223.984 113.417 222.69C111.116 218.69 108.63 214.764 106.422 210.727C104.905 207.88 103.509 204.936 102.453 201.904C102.041 200.744 101.645 199.625 100.835 198.672C99.2792 196.929 98.1518 194.92 97.2385 192.777C96.0009 189.96 94.5031 187.294 93.1733 184.514C92.9274 183.901 93.9328 183.54 94.505 183.87C95.9012 184.674 96.0919 184.912 96.7913 186.329C98.3278 189.358 99.5877 192.497 101.355 195.433C108.602 207.627 115.238 220.16 122.808 232.224C125.454 236.417 127.702 240.818 130.469 244.914C133.398 249.278 136.784 253.316 138.902 258.194C139.456 259.44 140.424 260.519 141.33 261.576C142.76 263.274 144.751 264.369 146.967 265.089C148.87 265.698 150.655 265.077 151.935 263.332C152.416 262.666 152.803 261.895 152.926 261.135C153.282 258.957 153.869 256.686 153.653 254.547C153.241 250.452 153.335 246.153 150.211 242.768C148.894 241.355 147.925 239.472 148.465 237.219C148.638 236.582 148.308 235.626 147.864 235.188C144.072 231.739 142.958 226.695 139.778 222.905C139.332 222.327 139.159 221.497 139.111 220.711C139.003 219.24 138.36 218.172 137.468 217.015C136.287 215.406 135.58 213.512 134.706 211.732C134.316 210.895 133.972 210.038 133.553 209.26C132.265 206.984 130.41 205.029 130.104 202.265C129.807 199.259 126.207 198.289 125.466 195.51C125.212 194.476 124.957 193.441 124.765 192.43C124.645 191.863 124.706 191.081 124.312 190.765C121.817 188.455 120.888 184.359 119.426 181.289C119.293 181.009 119.165 180.722 119.04 180.43C117.135 176.082 115.259 171.674 112.586 167.681C112.075 166.94 111.761 166.024 111.726 165.139C111.635 163.045 111.241 161.262 109.217 160.086C108.652 159.745 108.384 158.811 108.307 158.084C108.275 157.339 108.58 156.365 109.616 156.281C110.189 156.24 111.077 156.452 111.379 156.804C112.881 158.947 115.025 160.69 115.533 163.422C115.744 164.615 116.617 165.591 117.213 166.677C118.406 168.849 119.629 170.962 120.868 173.116C122.27 175.678 123.307 178.528 125.214 180.746C127.153 183.045 128.233 185.736 129.833 188.123C133.037 193.039 134.97 198.655 139.138 203.042C140.375 204.392 141.188 206.149 141.997 207.765C145.021 213.7 148.167 219.539 152.781 224.504C153.083 224.856 153.339 225.227 153.657 225.62C156.612 229.784 159.475 233.984 162.569 238.092C164.626 240.818 166.926 243.35 169.075 246.038C170.906 248.334 173.014 250.518 174.446 253.02C175.374 254.654 177.485 255.129 179.169 254.296C179.969 253.9 180.763 253.506 181.544 253.107C181.851 252.936 182.19 252.848 182.512 252.718C184.052 252.168 184.468 250.34 183.38 249.119C180.258 245.616 177.559 241.825 175.099 237.846C174.361 236.674 173.502 235.599 172.626 234.483C170.539 231.817 167.688 229.647 166.564 226.311C166.332 225.599 165.639 225.073 165.13 224.472C163.555 222.548 161.95 220.682 160.375 218.758C157.911 215.818 157.021 211.867 154.175 209.174C151.962 207.127 151.874 203.707 148.867 202.215C148.522 202.022 148.293 201.451 148.284 201.029C148.295 198.657 146.789 197.037 145.42 195.361C144.656 194.389 143.753 193.473 143.173 192.428C141.354 189.228 139.703 185.914 137.838 182.733C136.068 179.656 133.715 176.861 132.423 173.639C130.273 168.016 126.191 163.311 124.578 157.425C124.343 156.572 123.798 155.749 123.224 154.986C118.838 149.124 116.399 142.244 113.086 135.857C111.068 132.027 109.603 127.976 107.722 124.091C105.859 120.247 103.228 116.758 101.608 112.721C99.9552 108.603 97.3807 104.855 95.3593 100.884C90.8123 91.8206 87.2465 82.2684 82.1925 73.4081C81.7106 72.6073 81.5974 71.6586 81.2999 70.7838C81.0023 69.909 80.8431 68.9788 80.3612 68.178C77.2631 63.1249 75.6399 57.4799 73.4636 52.0569C71.4019 46.9192 68.787 42.0035 66.8175 36.8289C64.5207 30.8388 60.3505 25.6479 58.7584 19.2803C58.4548 18.1239 57.5819 17.1486 56.9393 16.0809C56.4574 15.2802 55.9294 14.4979 55.6022 13.6824C54.3913 10.6651 53.3351 7.633 52.1242 4.61564C51.7315 3.63706 51.1842 2.67318 50.5149 1.80557C49.6687 0.630244 48.4717 0.447836 46.9507 1.05821C44.6001 2.00153 42.7581 3.54554 41.2313 5.34176C39.9915 6.78611 39.3168 8.57182 39.6159 10.2507C40.1264 13.1231 39.8668 16.2097 42.0395 18.557C42.5318 19.1169 42.7966 19.9101 43.0748 20.6033C45.3181 26.9936 47.5154 33.4024 49.8212 39.815C53.3663 49.8489 56.8488 59.8606 60.4861 69.8575C63.1191 77.0856 65.9069 84.299 68.7704 91.4346C73.1884 102.444 77.4384 113.568 82.3173 124.392C87.1963 135.216 90.969 146.484 96.7995 156.879C97.3959 157.965 97.7158 159.163 98.1279 160.323C98.1528 160.403 98.174 160.484 98.1892 160.564C98.3814 161.577 96.9104 161.023 96.5265 160.066C95.0137 156.696 93.6853 153.253 91.9584 150.017C90.651 147.559 88.9912 145.29 87.2096 143.117C84.8538 140.18 83.4793 136.755 82.197 133.293C81.5395 131.521 80.7467 129.946 79.3086 128.629C78.629 128.002 77.762 127.309 77.6518 126.501C77.1457 123.106 75.1944 120.244 74.3656 116.978C73.8106 114.929 72.5479 113.116 71.654 111.155C69.869 107.374 67.9622 103.689 66.4538 99.7968C64.7327 95.3746 63.3505 90.8638 60.892 86.7375C59.5578 84.4798 58.3917 82.1073 57.2419 79.7756C55.103 75.379 53.0859 70.8863 50.7924 66.5045C48.06 61.1625 45.2355 55.8576 42.2726 50.6082C38.3891 43.5979 34.4134 36.6246 30.3158 29.7476C28.8046 27.1821 25.8099 26.2535 22.548 28.7934C21.8924 29.2932 21.3186 29.9969 20.7745 30.6413C20.3764 31.1129 19.9844 31.5819 19.5898 32.059C18.2074 33.7301 17.4698 35.8644 17.6804 38.0229C17.9977 41.2738 18.7159 44.4375 20.5589 47.4393C22.6307 50.8686 23.8596 54.7309 25.4408 58.4044C27.6899 63.6088 29.9554 68.8541 32.1584 74.077C34.7675 80.1785 37.3766 86.28 40.0154 92.3222C43.1748 99.5284 46.4101 106.657 49.5234 113.882C52.2277 120.087 54.8561 126.37 57.5604 132.575C60.6083 139.637 63.7186 146.721 66.7204 153.801C67.1337 154.831 65.8017 154.343 65.4774 153.281C64.7806 151.001 63.7855 148.852 62.1292 147.027C61.6369 146.467 61.4643 145.637 61.094 144.981C60.3339 143.487 59.5575 141.952 58.7974 140.458C58.2009 139.372 57.5584 138.304 57.0081 137.2C54.6654 132.696 52.3689 128.173 50.0262 123.669C49.7019 122.994 49.1472 122.412 48.7144 121.733C47.3045 119.554 45.8023 117.411 44.5603 115.116C42.6729 111.613 40.9534 107.995 39.1581 104.454C37.7822 101.693 35.9915 99.0972 35.139 96.1728C34.2374 93.126 32.5419 90.6346 30.8598 88.0431C30.0269 86.7677 29.2534 85.3738 28.8815 83.9135C27.7685 79.6733 25.5821 75.9586 23.6262 72.1514C22.4303 69.8382 20.9282 67.6952 20.7002 64.9936C20.6004 63.9448 19.9445 62.9771 19.5057 62.017C18.4972 59.7706 17.3965 57.5612 16.388 55.3148C15.4286 53.1908 14.6238 51.052 13.6183 48.9464C12.58 46.7593 7.86191 45.6702 5.727 47.2844C3.95782 48.6098 2.49054 50.2875 1.13181 51.969C0.165529 53.1615 1.18278 54.3629 1.39412 55.5563C1.46557 56.001 1.55338 56.4865 1.53265 56.9683C1.30048 64.2573 3.0592 71.1735 4.80156 78.0489C7.93667 90.6617 12.1482 102.89 17.9135 114.589C23.1611 125.266 28.1159 136.012 33.2714 146.725C38.4974 157.619 44.1203 168.306 50.0645 178.865C50.0864 178.904 50.1322 178.932 50.1761 178.94C50.1974 178.944 50.2226 178.941 50.2432 178.947C50.3317 178.976 50.4216 178.992 50.5101 179.003C50.7783 179.033 51.0361 178.891 51.1968 178.674C51.2211 178.641 51.2447 178.609 51.2677 178.578C51.4366 178.35 51.6873 178.189 51.9705 178.172C52.9096 178.116 53.8146 178.285 54.6836 177.793C54.7819 177.737 54.8248 177.558 54.7459 177.477C54.7052 177.435 54.6742 177.453 54.6169 177.442C54.357 177.391 53.9848 177.424 54.1825 176.964C54.3742 176.508 54.7593 176.401 55.1831 176.657C55.3575 176.749 55.5349 176.849 55.7251 176.96C56.0923 177.173 56.5923 176.83 56.8436 176.488C56.9865 176.293 57.022 176.069 56.9213 175.85C56.3394 174.581 55.8732 173.298 55.3934 171.981C54.6675 169.905 53.5758 168.118 52.5435 166.213C49.7844 161.071 45.998 156.436 44.8654 150.547C44.794 150.102 44.5679 149.672 44.3121 149.301C41.455 145.382 40.0863 140.771 37.8284 136.612C36.7471 134.584 35.972 132.386 35.197 130.188C33.931 126.767 33.3104 123.086 30.8921 120.127C30.446 119.549 30.0265 118.771 30.0413 118.007C30.0484 116.158 28.982 114.834 28.0837 113.396C27.5066 112.491 26.6664 111.598 26.4744 110.586C25.7452 106.902 23.7715 103.717 22.6899 100.222C22.6514 100.088 22.5706 99.947 22.5012 99.8041C22.1406 99.0623 23.4836 99.1148 23.8749 99.841C27.4371 106.317 31.0158 112.835 34.5319 119.33C39.3555 128.282 44.0869 137.272 48.9105 146.225C50.1034 148.397 51.3721 150.492 52.5649 152.664C54.9998 157.132 57.1744 161.75 59.9616 166.029C61.665 168.642 63.2314 171.268 64.765 173.945C64.9351 174.241 65.2928 174.346 65.6264 174.421C65.6479 174.426 65.6694 174.432 65.6908 174.439C65.9207 174.508 66.0051 174.814 65.8963 175.028C65.7576 175.301 65.7087 175.603 65.8598 175.869C68.312 180.193 70.705 184.579 73.3685 188.769C78.3228 196.581 82.2363 204.999 87.0225 212.926C90.1533 218.06 93.2544 223.254 96.4774 228.352C99.6053 233.346 102.885 238.184 106.059 243.159C108.846 247.438 111.541 251.753 114.374 256.013C118.023 262.171 121.942 267.936 125.861 273.701C126.947 275.259 128.033 276.817 129.119 278.375C129.205 278.497 129.363 278.527 129.512 278.532C130.448 278.472 131.193 278.04 131.915 277.566C133.252 276.686 134.658 275.629 136.248 275.45C136.929 275.414 137.529 275.173 138.092 274.71C138.702 274.229 139.485 273.915 140.269 273.6C140.499 273.508 140.953 273.704 141.081 273.89C141.304 274.179 140.938 274.468 140.678 274.619C140.556 274.716 140.447 274.712 140.309 274.767C138.129 275.737 135.933 276.665 133.724 277.694C131.702 278.581 131.123 281.25 132.41 283.044C132.437 283.082 132.465 283.121 132.492 283.159C132.641 283.321 132.842 283.375 133.026 283.255C133.403 283.01 133.782 282.722 134.102 282.371C134.574 281.945 135.032 281.619 135.732 281.764ZM134.142 180.324C134.462 181.12 133.646 181.661 133.237 180.907C133.154 180.754 133.079 180.6 133.01 180.443C132.893 180.177 133.025 179.874 133.289 179.755C133.578 179.626 133.916 179.762 134.034 180.056L134.142 180.324ZM131.58 176.651C131.694 176.712 131.691 176.865 131.605 176.962C131.583 176.987 131.562 177.011 131.54 177.036C131.454 177.134 131.298 177.104 131.249 176.983C131.223 176.917 131.238 176.84 131.279 176.782C131.298 176.755 131.317 176.727 131.336 176.7C131.383 176.633 131.465 176.598 131.541 176.631C131.554 176.637 131.567 176.644 131.58 176.651ZM127.906 170.125C127.949 170.226 127.9 170.342 127.798 170.383C127.696 170.423 127.58 170.374 127.539 170.272L127.042 169.033C127.014 168.964 127.066 168.877 127.135 168.849C127.196 168.825 127.248 168.854 127.282 168.91C127.513 169.285 127.725 169.697 127.906 170.125ZM97.2515 131.256C97.022 131.175 96.9464 130.88 97.1133 130.703C97.2375 130.571 97.4419 130.576 97.5778 130.696C97.6699 130.777 97.7605 130.864 97.836 130.967C97.8638 131.005 97.8759 131.05 97.8521 131.09C97.8238 131.138 97.7747 131.204 97.7241 131.261C97.6471 131.347 97.529 131.355 97.4202 131.317C97.3621 131.296 97.3061 131.276 97.2515 131.256ZM99.668 136.373C99.6423 135.944 100.108 135.425 100.465 135.666C100.507 135.695 100.512 135.723 100.534 135.768C100.762 136.242 100.99 136.716 101.218 137.191C102.381 139.613 100.407 140.742 99.8904 138.105C99.7753 137.517 99.7019 136.941 99.668 136.373ZM68.9324 159.338C68.9217 159.318 68.9319 159.294 68.9402 159.273C68.9535 159.239 68.9725 159.206 68.9957 159.175C69.1138 159.016 69.4365 159.066 69.4547 159.263C69.4559 159.277 69.456 159.287 69.4525 159.301C69.4082 159.476 69.1152 159.508 68.9786 159.39C68.9567 159.371 68.9405 159.354 68.9324 159.338ZM84.2335 164.17C84.239 164.091 84.3247 164.045 84.3936 164.083C84.4726 164.127 84.4652 164.243 84.3811 164.277C84.3074 164.307 84.228 164.249 84.2335 164.17ZM86.1665 168.794C86.0642 168.705 86.0289 168.566 86.0654 168.435C86.131 168.2 86.4225 168.09 86.6064 168.251C86.6926 168.326 86.7637 168.409 86.8051 168.512C86.8188 168.546 86.8231 168.586 86.8207 168.63C86.805 168.915 86.4106 169.004 86.1945 168.818C86.1851 168.81 86.1757 168.802 86.1665 168.794ZM90.2914 178.297C89.7121 177.507 91.0264 176.501 91.293 177.444C91.3087 177.5 91.324 177.558 91.339 177.618C91.521 178.348 90.736 178.904 90.2914 178.297ZM141.253 276.187C141.533 276.287 141.813 276.387 141.761 276.66C141.716 276.896 141.49 276.986 141.251 276.96C140.81 276.913 140.39 276.368 140.792 276.183C140.925 276.121 141.077 276.125 141.253 276.187ZM137.241 278.213C137.242 278.185 137.258 278.17 137.286 278.171C137.297 278.171 137.308 278.172 137.321 278.174C137.371 278.179 137.392 278.24 137.35 278.27C137.343 278.274 137.336 278.279 137.329 278.284C137.289 278.311 137.238 278.261 137.241 278.213ZM138.654 277.864C138.909 277.882 139.019 278.361 138.785 278.464C138.771 278.47 138.758 278.473 138.745 278.472C138.677 278.479 138.6 278.461 138.534 278.428C138.384 278.352 138.374 278.144 138.468 278.006C138.498 277.962 138.532 277.922 138.563 277.895C138.59 277.871 138.617 277.861 138.654 277.864ZM131.748 280.882C131.689 280.836 131.672 280.747 131.721 280.691C131.726 280.685 131.731 280.68 131.736 280.675C131.749 280.664 131.766 280.661 131.783 280.663C131.81 280.666 131.834 280.673 131.858 280.68C131.932 280.704 131.954 280.831 131.907 280.892C131.879 280.928 131.839 280.936 131.799 280.915C131.779 280.904 131.763 280.893 131.748 280.882ZM134.835 279.941C134.802 279.9 134.827 279.876 134.842 279.826C134.893 279.662 135.028 279.491 135.141 279.331C135.159 279.306 135.172 279.288 135.203 279.285C135.289 279.277 135.401 279.321 135.443 279.398C135.468 279.445 135.49 279.491 135.488 279.524C135.488 279.538 135.481 279.551 135.477 279.564C135.445 279.656 135.411 279.74 135.372 279.822C135.278 280.016 134.968 280.111 134.835 279.941Z" fill="#24A556"/>
</svg>

<svg xmlns="http://www.w3.org/2000/svg" width="184" height="284" fill="none"><path fill="#24A556" d="M135.732 281.764c.404.075.836-.051 1.123-.403.27-.392.53-.544 1.027-.507.885.071 1.589-.306 2.324-.743.351-.199.69-.376 1.041-.472.418-.114.856-.232 1.199-.497.478-.368.748-.945.67-1.543-.275-2.111-.791-4.139-1.761-6.092-2.247-4.4-4.525-8.741-7.032-12.99-2.668-4.515-4.938-9.238-8.311-13.376-1.369-1.676-2.677-3.47-3.509-5.409-1.437-3.447-3.378-6.551-5.549-9.561-.718-.99-1.101-2.21-1.605-3.333-.665-1.39-1.146-2.854-1.932-4.148-2.301-4-4.787-7.926-6.995-11.963-1.517-2.847-2.913-5.791-3.969-8.823-.412-1.16-.808-2.279-1.618-3.232-1.556-1.743-2.683-3.752-3.596-5.895-1.238-2.817-2.736-5.483-4.066-8.263-.246-.613.76-.974 1.332-.644 1.396.804 1.587 1.042 2.286 2.459 1.537 3.029 2.797 6.168 4.564 9.104 7.247 12.194 13.883 24.727 21.453 36.791 2.646 4.193 4.894 8.594 7.661 12.69 2.929 4.364 6.315 8.402 8.433 13.28.554 1.246 1.522 2.325 2.428 3.382 1.43 1.698 3.421 2.793 5.637 3.513 1.903.609 3.688-.012 4.968-1.757.481-.666.868-1.437.991-2.197.356-2.178.943-4.449.727-6.588-.412-4.095-.318-8.394-3.442-11.779-1.317-1.413-2.286-3.296-1.746-5.549.173-.637-.157-1.593-.601-2.031-3.792-3.449-4.906-8.493-8.086-12.283-.446-.578-.619-1.408-.667-2.194-.108-1.471-.751-2.539-1.643-3.696-1.181-1.609-1.888-3.503-2.762-5.283-.39-.837-.734-1.694-1.153-2.472-1.288-2.276-3.143-4.231-3.449-6.995-.297-3.006-3.897-3.976-4.638-6.755-.254-1.034-.509-2.069-.701-3.08-.12-.567-.059-1.349-.453-1.665-2.495-2.31-3.424-6.406-4.886-9.476-.133-.28-.261-.567-.386-.859-1.905-4.348-3.781-8.756-6.454-12.749a4.923 4.923 0 0 1-.86-2.542c-.091-2.094-.485-3.877-2.509-5.053-.565-.341-.833-1.275-.91-2.002-.032-.745.273-1.719 1.309-1.803.573-.041 1.461.171 1.763.523 1.502 2.143 3.646 3.886 4.154 6.618.211 1.193 1.084 2.169 1.68 3.255 1.193 2.172 2.416 4.285 3.655 6.439 1.402 2.562 2.439 5.412 4.346 7.63 1.939 2.299 3.019 4.99 4.619 7.377 3.204 4.916 5.137 10.532 9.305 14.919 1.237 1.35 2.05 3.107 2.859 4.723 3.024 5.935 6.17 11.774 10.784 16.739.302.352.558.723.876 1.116 2.955 4.164 5.818 8.364 8.912 12.472 2.057 2.726 4.357 5.258 6.506 7.946 1.831 2.296 3.939 4.48 5.371 6.982.928 1.634 3.039 2.109 4.723 1.276.8-.396 1.594-.79 2.375-1.189.307-.171.646-.259.968-.389 1.54-.55 1.956-2.378.868-3.599-3.122-3.503-5.821-7.294-8.281-11.273-.738-1.172-1.597-2.247-2.473-3.363-2.087-2.666-4.938-4.836-6.062-8.172-.232-.712-.925-1.238-1.434-1.839-1.575-1.924-3.18-3.79-4.755-5.714-2.464-2.94-3.354-6.891-6.2-9.584-2.213-2.047-2.301-5.467-5.308-6.959-.345-.193-.574-.764-.583-1.186.011-2.372-1.495-3.992-2.864-5.668-.764-.972-1.667-1.888-2.247-2.933-1.819-3.2-3.47-6.514-5.335-9.695-1.77-3.077-4.123-5.872-5.415-9.094-2.15-5.623-6.232-10.328-7.845-16.214-.235-.853-.78-1.676-1.354-2.439-4.386-5.862-6.825-12.742-10.138-19.129-2.018-3.83-3.483-7.881-5.364-11.766-1.863-3.844-4.494-7.333-6.114-11.37-1.653-4.118-4.227-7.866-6.249-11.837-4.547-9.063-8.112-18.616-13.166-27.476-.482-.8-.596-1.75-.893-2.624-.298-.875-.457-1.805-.939-2.606-3.098-5.053-4.721-10.698-6.897-16.121-2.062-5.138-4.677-10.053-6.647-15.228-2.296-5.99-6.466-11.181-8.059-17.549-.303-1.156-1.176-2.131-1.819-3.2-.482-.8-1.01-1.582-1.337-2.398-1.21-3.017-2.267-6.049-3.478-9.066a11.896 11.896 0 0 0-1.61-2.81C49.67.63 48.473.448 46.952 1.058c-2.35.944-4.193 2.488-5.72 4.284-1.24 1.444-1.914 3.23-1.615 4.909.51 2.872.25 5.959 2.423 8.306.493.56.758 1.353 1.036 2.046 2.243 6.39 4.44 12.8 6.746 19.212 3.545 10.034 7.028 20.046 10.665 30.043a717.077 717.077 0 0 0 8.284 21.577c4.418 11.009 8.668 22.133 13.547 32.957 4.88 10.824 8.652 22.092 14.483 32.487.596 1.086.916 2.284 1.328 3.444.025.08.046.161.061.241.192 1.013-1.279.459-1.662-.498-1.513-3.37-2.842-6.813-4.569-10.049-1.307-2.458-2.967-4.727-4.748-6.9-2.356-2.937-3.73-6.362-5.013-9.824-.657-1.772-1.45-3.347-2.888-4.664-.68-.627-1.547-1.32-1.657-2.128-.506-3.395-2.458-6.257-3.286-9.523-.555-2.049-1.818-3.862-2.712-5.823-1.785-3.781-3.692-7.466-5.2-11.358-1.721-4.422-3.103-8.933-5.562-13.06-1.334-2.257-2.5-4.63-3.65-6.961-2.139-4.397-4.156-8.89-6.45-13.272a439.19 439.19 0 0 0-8.52-15.896c-3.883-7.01-7.859-13.983-11.956-20.86-1.511-2.566-4.506-3.495-7.768-.955-.656.5-1.23 1.204-1.773 1.848-.399.472-.79.94-1.185 1.418-1.383 1.671-2.12 3.805-1.91 5.964.318 3.25 1.036 6.414 2.879 9.416 2.072 3.43 3.3 7.292 4.882 10.965 2.249 5.205 4.514 10.45 6.717 15.673 2.61 6.102 5.219 12.203 7.857 18.245 3.16 7.206 6.395 14.335 9.508 21.56 2.705 6.205 5.333 12.488 8.037 18.693 3.048 7.062 6.159 14.146 9.16 21.226.414 1.03-.918.542-1.243-.52-.696-2.28-1.692-4.429-3.348-6.254-.492-.56-.665-1.39-1.035-2.046-.76-1.494-1.537-3.029-2.297-4.523-.596-1.086-1.239-2.154-1.789-3.258-2.343-4.504-4.64-9.027-6.982-13.531-.324-.675-.879-1.257-1.312-1.936-1.41-2.179-2.912-4.322-4.154-6.617-1.887-3.503-3.607-7.121-5.402-10.662-1.376-2.761-3.166-5.357-4.019-8.281-.902-3.047-2.597-5.538-4.28-8.13-.832-1.275-1.606-2.67-1.978-4.13-1.113-4.24-3.299-7.954-5.255-11.762-1.196-2.313-2.698-4.456-2.926-7.157-.1-1.05-.755-2.017-1.194-2.977-1.009-2.246-2.11-4.456-3.118-6.702-.96-2.124-1.764-4.263-2.77-6.369-1.038-2.187-5.756-3.276-7.891-1.662-1.77 1.326-3.236 3.004-4.595 4.685-.966 1.192.05 2.394.262 3.587.072.445.16.93.139 1.412-.233 7.29 1.526 14.206 3.269 21.08 3.135 12.614 7.346 24.842 13.111 36.541 5.248 10.677 10.203 21.423 15.358 32.136 5.226 10.894 10.85 21.581 16.794 32.14a.166.166 0 0 0 .111.075c.021.004.047.001.067.007.089.029.179.045.267.056.268.03.526-.112.687-.329l.07-.096a.96.96 0 0 1 .703-.406c.94-.056 1.845.113 2.714-.379.098-.056.14-.235.062-.316-.04-.042-.072-.024-.13-.035-.259-.051-.631-.018-.434-.478.192-.456.577-.563 1.001-.307.175.092.352.192.542.303.367.213.867-.13 1.119-.472a.609.609 0 0 0 .077-.638c-.582-1.269-1.048-2.552-1.528-3.869-.726-2.076-1.817-3.863-2.85-5.768-2.759-5.142-6.545-9.777-7.678-15.666-.071-.445-.297-.875-.553-1.246-2.857-3.919-4.226-8.53-6.484-12.689-1.08-2.028-1.856-4.226-2.631-6.424-1.266-3.421-1.887-7.102-4.305-10.061-.446-.578-.866-1.356-.85-2.12.006-1.849-1.06-3.173-1.958-4.611-.577-.905-1.418-1.798-1.61-2.81-.729-3.684-2.703-6.869-3.784-10.364-.039-.134-.12-.275-.189-.418-.36-.742.983-.69 1.374.037 3.562 6.476 7.14 12.994 10.657 19.489 4.824 8.952 9.555 17.942 14.379 26.895 1.192 2.172 2.461 4.267 3.654 6.439 2.435 4.468 4.61 9.086 7.397 13.365 1.703 2.613 3.27 5.239 4.803 7.916.17.296.528.401.861.476a.763.763 0 0 1 .065.018c.23.069.314.375.205.589-.138.273-.187.575-.036.841 2.452 4.324 4.845 8.71 7.508 12.9 4.955 7.812 8.868 16.23 13.654 24.157 3.131 5.134 6.232 10.328 9.455 15.426 3.128 4.994 6.408 9.832 9.582 14.807 2.787 4.279 5.482 8.594 8.315 12.854 3.649 6.158 7.568 11.923 11.487 17.688l3.258 4.674c.086.122.244.152.393.157.936-.06 1.681-.492 2.403-.966 1.337-.88 2.743-1.937 4.333-2.116.681-.036 1.281-.277 1.844-.74.61-.481 1.393-.795 2.177-1.11.23-.092.684.104.812.29.223.289-.143.578-.403.729-.122.097-.231.093-.369.148-2.18.97-4.376 1.898-6.585 2.927-2.022.887-2.601 3.556-1.314 5.35l.082.115c.149.162.35.216.534.096a5.495 5.495 0 0 0 1.076-.884c.472-.426.93-.752 1.63-.607Zm-1.59-101.44c.32.796-.496 1.337-.905.583a6.208 6.208 0 0 1-.227-.464.527.527 0 0 1 .279-.688.557.557 0 0 1 .745.301l.108.268Zm-2.562-3.673c.114.061.111.214.025.311l-.065.074a.173.173 0 0 1-.291-.053.217.217 0 0 1 .03-.201l.057-.082c.047-.067.129-.102.205-.069a.72.72 0 0 1 .039.02Zm-3.674-6.526a.196.196 0 0 1-.108.258.2.2 0 0 1-.259-.111l-.497-1.239c-.028-.069.024-.156.093-.184.061-.024.113.005.147.061.231.375.443.787.624 1.215Zm-30.655-38.869a.342.342 0 0 1-.138-.553c.124-.132.329-.127.465-.007.092.081.182.168.258.271.028.038.04.083.016.123a1.217 1.217 0 0 1-.128.171c-.077.086-.195.094-.304.056l-.169-.061Zm2.417 5.117c-.026-.429.44-.948.797-.707.042.029.047.057.069.102l.684 1.423c1.163 2.422-.811 3.551-1.328.914a13.045 13.045 0 0 1-.222-1.732Zm-30.736 22.965c-.01-.02 0-.044.008-.065a.42.42 0 0 1 .056-.098c.118-.159.44-.109.459.088a.104.104 0 0 1-.002.038c-.045.175-.338.207-.474.089a.192.192 0 0 1-.047-.052Zm15.302 4.832a.108.108 0 1 1 .215.014.108.108 0 0 1-.216-.014Zm1.933 4.624a.347.347 0 0 1-.102-.359c.066-.235.358-.345.541-.184a.692.692 0 0 1 .2.261.276.276 0 0 1 .015.118c-.016.285-.41.374-.626.188a3.483 3.483 0 0 1-.028-.024Zm4.124 9.503c-.579-.79.735-1.796 1.002-.853.016.056.031.114.046.174.182.73-.603 1.286-1.048.679Zm50.962 97.89c.28.1.56.2.508.473-.045.236-.271.326-.51.3-.441-.047-.861-.592-.459-.777.133-.062.285-.058.461.004Zm-4.012 2.026c.001-.028.017-.043.045-.042l.035.003c.05.005.071.066.029.096l-.021.014c-.04.027-.091-.023-.088-.071Zm1.413-.349c.255.018.365.497.131.6a.084.084 0 0 1-.04.008.399.399 0 0 1-.211-.044c-.15-.076-.16-.284-.066-.422a.602.602 0 0 1 .095-.111.112.112 0 0 1 .091-.031Zm-6.906 3.018c-.059-.046-.076-.135-.027-.191l.015-.016a.06.06 0 0 1 .047-.012c.027.003.051.01.075.017.074.024.096.151.049.212-.028.036-.068.044-.108.023a.452.452 0 0 1-.051-.033Zm3.087-.941c-.033-.041-.008-.065.007-.115.051-.164.186-.335.299-.495.018-.025.031-.043.062-.046.086-.008.198.036.24.113.025.047.047.093.045.126 0 .014-.007.027-.011.04a2.524 2.524 0 0 1-.105.258c-.094.194-.404.289-.537.119Z"/></svg>
